icons/Rainy--1504935.svg

<svg enable-background="new 0 0 16 16" viewBox="0 0 16 16" xmlns="http://www.w3.org/2000/svg"><path d="m13 11h-9.5c-1.93 0-3.5-1.57-3.5-3.5 0-1.902 1.525-3.454 3.416-3.499.787-1.81 2.583-3.001 4.584-3.001 2.409 0 4.436 1.688 4.902 4.001 1.748-.036 3.098 1.312 3.098 2.999 0 1.654-1.346 3-3 3zm-9.5-6c-1.378 0-2.5 1.122-2.5 2.5 0 1.379 1.122 2.5 2.5 2.5h9.5c1.103 0 2-.897 2-2s-.897-2-2-2c-.147 0-.297.017-.428.042-.137.024-.28-.008-.392-.091-.112-.084-.184-.211-.197-.35-.208-2.053-1.92-3.601-3.983-3.601-1.703 0-3.221 1.079-3.777 2.684-.085.245-.341.386-.594.321-.023-.005-.089-.005-.129-.005z"/><path d="m12.5 16c-.827 0-1.5-.673-1.5-1.5 0-.639.762-1.811 1.089-2.284.186-.27.637-.27.822 0 .327.473 1.089 1.645 1.089 2.284 0 .827-.673 1.5-1.5 1.5zm0-2.573c-.288.485-.496.921-.5 1.074 0 .274.225.499.5.499s.5-.225.5-.5c-.005-.153-.212-.588-.5-1.073z"/><path d="m8 16c-.827 0-1.5-.673-1.5-1.5 0-.639.761-1.811 1.088-2.284.188-.27.637-.27.823 0 .327.473 1.089 1.645 1.089 2.284 0 .827-.673 1.5-1.5 1.5zm0-2.573c-.288.485-.496.921-.5 1.074 0 .274.224.499.5.499.275 0 .5-.225.5-.5-.005-.153-.212-.588-.5-1.073z"/><path d="m3.5 16c-.827 0-1.5-.673-1.5-1.5 0-.639.761-1.811 1.088-2.284.188-.27.636-.27.823 0 .328.473 1.089 1.645 1.089 2.284 0 .827-.673 1.5-1.5 1.5zm0-2.573c-.288.485-.496.921-.5 1.074 0 .274.224.499.5.499.275 0 .5-.225.5-.5-.004-.153-.212-.588-.5-1.073z"/></svg>

<?xml version="1.0" encoding="utf-8"?>
<!DOCTYPE svg PUBLIC "-//W3C//DTD SVG 1.0//EN" "http://www.w3.org/TR/2001/REC-SVG-20010904/DTD/svg10.dtd">
<svg    fill="#000000" xmlns="http://www.w3.org/2000/svg" xmlns:xlink="http://www.w3.org/1999/xlink" version="1.1" x="0px" y="0px" viewBox="0 0 16 16" style="enable-background:new 0 0 16 16;" xml:space="preserve"><g><path d="M13,11H3.5C1.57,11,0,9.43,0,7.5c0-1.902,1.525-3.454,3.416-3.499C4.203,2.191,5.999,1,8,1   c2.409,0,4.436,1.688,4.902,4.001C14.65,4.965,16,6.313,16,8C16,9.654,14.654,11,13,11z M3.5,5C2.122,5,1,6.122,1,7.5   C1,8.879,2.122,10,3.5,10H13c1.103,0,2-0.897,2-2c0-1.103-0.897-2-2-2c-0.147,0-0.297,0.017-0.428,0.042   c-0.137,0.024-0.28-0.008-0.392-0.091c-0.112-0.084-0.184-0.211-0.197-0.35C11.775,3.548,10.063,2,8,2   C6.297,2,4.779,3.079,4.223,4.684C4.138,4.929,3.882,5.07,3.629,5.005C3.606,5,3.54,5,3.5,5z"></path><path d="M12.5,16c-0.827,0-1.5-0.673-1.5-1.5c0-0.639,0.762-1.811,1.089-2.284c0.186-0.27,0.637-0.27,0.822,0   C13.238,12.689,14,13.861,14,14.5C14,15.327,13.327,16,12.5,16z M12.5,13.427c-0.288,0.485-0.496,0.921-0.5,1.074   C12,14.775,12.225,15,12.5,15s0.5-0.225,0.5-0.5C12.995,14.347,12.788,13.912,12.5,13.427z"></path><path d="M8,16c-0.827,0-1.5-0.673-1.5-1.5c0-0.639,0.761-1.811,1.088-2.284c0.188-0.27,0.637-0.27,0.823,0   C8.738,12.689,9.5,13.861,9.5,14.5C9.5,15.327,8.827,16,8,16z M8,13.427c-0.288,0.485-0.496,0.921-0.5,1.074   C7.5,14.775,7.724,15,8,15c0.275,0,0.5-0.225,0.5-0.5C8.495,14.347,8.288,13.912,8,13.427z"></path><path d="M3.5,16C2.673,16,2,15.327,2,14.5c0-0.639,0.761-1.811,1.088-2.284c0.188-0.27,0.636-0.27,0.823,0   C4.239,12.689,5,13.861,5,14.5C5,15.327,4.327,16,3.5,16z M3.5,13.427c-0.288,0.485-0.496,0.921-0.5,1.074   C3,14.775,3.224,15,3.5,15C3.775,15,4,14.775,4,14.5C3.996,14.347,3.788,13.912,3.5,13.427z"></path></g></svg>
